!!!ONB: MCCC : IJH0462_03 : Extracted Monophonic Melody
!!!COM: Haydn, Joseph
!!!OPR: String Quartet in G major
!!!OMV: 3
!!!SCT: Hob.III:41 ; Op.33 No.5
!!!ODT: 1781///
**kern
*thru
*k[f#]
*G:
*clefG
*M3/4
8G
8B
=1
4d
4B
8f#
8g
=2
4d
8a#
8b
4g
=3
8cc#
8dd
4b
8ff#
8gg
=4
2dd
8d
8e-
=5
8e
8f
8f#
8g
8g#
8a
=6
8b
8cc
8aa
8ff#
8dd
8cc
=7
4b
4gg
4ff#
=8
2.r
=9
2.aa
=10
4bb
4r
8bb
8aa#
=11
8bb
8ff#
8gg
8ee
8aa
8gg#
=12
8aa
8ee
8ff#
8dd
8aa
8gg#
=13
8aa
8gg#
8aa
8gg#
8aa
8gg#
=14
8aa
8ee
8ff#
8cc#
8dd
8a
=15
4g
4g
4g
=16
2g
8d
8f#
=17
4a
4f#
8cc#
8dd
=18
4a
8ee#
8ff#
4dd
=19
4gg#
4aa
4ff#
=20
2ccc#
4ddd
=21
2aa
4aa#[
=22
4aa#]
2ccc#
=23
2bb
8gg
8ee
=24
2.dd[
=25
2dd]
4ee
=26
4dd
4r
8dd
8ee-
=27
4cc
8cc
8dd
4b-
=28
8b-
8cc
4a
8a
8b-
=29
4g
4e-
4c#
=30
8d
8c#
8d
8c#
8d
8c#
=31
4d
4c#
8c
8A
=32
8G
8B
8d
8B
8d
8B
=33
4d
4B
8f#
8g
=34
4d
8a#
8b
4g
=35
8cc#
8dd
4b
8ff#
8gg
=36
2dd
8d
8e-
=37
8e
8f
8f#
8g
8g#
8a
=38
8b
8cc
8aa
8ff#
8dd
8cc
=39
4b
4gg
4ff#
=40
2.r
=41
2.aa
=42
4bb
4r
4gg
=43
4ff#
4gg
4aa
=44
8aa
8bb
4gg
4bb
=45
8bb
8ccc
8aa
8ccc
8bb
8gg
=46
2aa
4gg
=47
4ff#
4gg
4aa
=48
8aa
8bb
4gg
4aa
=49
4.bb
8ggg
8eee
8ccc#
=50
4ddd
4r
4dd
=51
8cc#
8dd
8ee
8dd
8bb
8dd
=52
8dd
8cc#
8aa
8cc
8cc
8b
=53
8gg
8b
8b
8a
8ee
8g
=54
2f#
4gg
=55
4ff#
4gg
4aa
=56
8aa
8bb
4gg
4bb
=57
8bb
8ccc
8aa
8ccc
8bb
8gg
=58
2aa
4aa
=59
4gg#
4aa
4bb
=60
8bb
8ccc
4aa
4ccc
=61
8ccc
8bb
8gg
8bb
8aa
8ff#
=62
4gg
2r
==
*-
